assets/images/new-workspace.svg

<svg fill="#03d47c" viewBox="0 0 40 40" xmlns="http://www.w3.org/2000/svg"><path clip-rule="evenodd" d="m40 20c0-11-9-20-20-20s-20 9-20 20 9 20 20 20 20-9 20-20zm-25.2-9c-1 0-1.8.8-1.8 1.8v14.4c0 1 .8 1.8 1.8 1.8h3.2v-3.1c0-.4.4-.8.8-.8h2.4c.4 0 .8.4.8.8v3.2h3.3c1 0 1.8-.8 1.8-1.8v-14.5c0-1-.8-1.8-1.8-1.8zm1.1 3c0-.6.4-1 1-1h6.2c.6 0 1 .4 1 1s-.4 1-1 1h-6.2c-.6 0-1-.4-1-1zm1 3c-.6 0-1 .4-1 1s.4 1 1 1h6.2c.6 0 1-.4 1-1s-.4-1-1-1zm-1 5c0-.6.4-1 1-1h6.2c.6 0 1 .4 1 1s-.4 1-1 1h-6.2c-.6 0-1-.4-1-1z" fill-rule="evenodd"/><path d="m28.7992 5.7998c0-.1-.1-.1 0 0zm0 0c-.6-1-2-1-2.6 0l-.9 1.7-2.1.3c-1.1.1-1.8 1.5-.8 2.4l1.5 1.3-.3 1.8c-.1.6.2 1.1.6 1.4s1 .3 1.5.1l1.9-.9 1.9.9c.5.2 1.1.2 1.5-.1s.7-.8.6-1.4l-.3-1.8 1.5-1.3c1-.9.3-2.3-.8-2.4l-2.1-.3z"/><path clip-rule="evenodd" d="m27.9576 6.30479.8416-.50499-.8224.53215c-.0067-.00915-.0131-.01821-.0192-.02716zm1.5092-1.29569c-1.0716-1.36531-3.1954-1.27324-4.1251.27621-.0091.0153-.0179.03084-.0263.04661l-.6617 1.24995-1.5739.22484c-.9414.09705-1.6862.73551-1.9982 1.52593-.3338.84556-.1757 1.86856.6487 2.61046l.014.0124 1.0764.9329-.2079 1.247c-.1763 1.0579.368 1.9006.9864 2.3644.7741.5806 1.7753.5069 2.4714.2285.0192-.0077.0381-.0159.0567-.0248l1.4719-.6972 1.4719.6972c.0187.0089.0376.0171.0567.0248.6962.2784 1.6973.3521 2.4714-.2285.6185-.4638 1.1627-1.3065.9864-2.3644l-.2078-1.247 1.0764-.9329.014-.0124c.8244-.7419.9825-1.7649.6487-2.61046-.312-.79042-1.0568-1.42888-1.9982-1.52593l-1.6273-.23246-.7742-1.19661c-.0228-.05565-.0506-.11059-.084-.16408-.0414-.06613-.0958-.13707-.1664-.20446zm.2859.7907h-.9535l-.6834.68343c.0161.0141.0331.02803.051.04169.0859.06545.2927.19988.5949.19988.1665 0 .3777-.04317.5755-.18387.2014-.14317.3174-.3366.3726-.51316.0252-.08073.0381-.1574.0429-.22797zm-1.754.60354c-.0366-.04534-.0764-.10136-.113-.16774-.2245-.26669-.6197-.24628-.8181.06124l-.8846 1.67085c-.1497.28276-.4256.47682-.7423.52206l-2.1.3c-.017.00242-.0339.0044-.0509.00595-.145.01317-.2881.11976-.3479.27127-.0264.06695-.029.12594-.0182.17466.0095.04265.0377.11703.1389.20984l1.4916 1.29263c.2631.2281.3887.5766.3314.9201l-.3 1.8c-.0142.0855-.0012.1545.0299.22.0346.0732.0972.1507.1837.2156.0065.0048.0512.0335.1601.0386.1017.0049.2246-.0135.3447-.0579l1.8671-.8844c.271-.1284.5853-.1284.8562 0l1.8671.8844c.1202.0444.2431.0628.3448.0579.1089-.0051.1536-.0338.16-.0386.0866-.0649.1491-.1424.1838-.2156.031-.0655.0441-.1345.0298-.22l-.3-1.8c-.0572-.3435.0683-.692.3315-.9201l1.4915-1.29265c.1012-.09279.1294-.16718.1389-.20982.0109-.04872.0083-.10771-.0181-.17466-.0598-.15151-.203-.2581-.3479-.27127-.017-.00155-.034-.00353-.0509-.00595l-2.1-.3c-.2864-.04091-.541-.20382-.6981-.44669z" fill-rule="evenodd"/><path d="m28.7995 5.7998c0-.1-.1-.1 0 0-.6-1-2-1-2.6 0l-.9 1.7-2.1.3c-1.1.1-1.8 1.5-.8 2.4l1.5 1.3-.3 1.8c-.1.6.2 1.1.6 1.4s1 .3 1.5.1l1.9-.9 1.9.9c.5.2 1.1.2 1.5-.1s.7-.8.6-1.4l-.3-1.8 1.5-1.3c1-.9.3-2.3-.8-2.4l-2.1-.3z" fill="#fed607"/></svg>

<svg width="40" height="40" viewBox="0 0 40 40" fill="#03D47C" xmlns="http://www.w3.org/2000/svg"><path fill-rule="evenodd" clip-rule="evenodd" d="M40 20C40 9 31 0 20 0C9 0 0 9 0 20C0 31 9 40 20 40C31 40 40 31 40 20ZM14.8 11C13.8 11 13 11.8 13 12.8V27.2C13 28.2 13.8 29 14.8 29H18V25.9C18 25.5 18.4 25.1 18.8 25.1H21.2C21.6 25.1 22 25.5 22 25.9V29.1H25.3C26.3 29.1 27.1 28.3 27.1 27.3V12.8C27.1 11.8 26.3 11 25.3 11H14.8ZM15.9 14C15.9 13.4 16.3 13 16.9 13H23.1C23.7 13 24.1 13.4 24.1 14C24.1 14.6 23.7 15 23.1 15H16.9C16.3 15 15.9 14.6 15.9 14ZM16.9 17C16.3 17 15.9 17.4 15.9 18C15.9 18.6 16.3 19 16.9 19H23.1C23.7 19 24.1 18.6 24.1 18C24.1 17.4 23.7 17 23.1 17H16.9ZM15.9 22C15.9 21.4 16.3 21 16.9 21H23.1C23.7 21 24.1 21.4 24.1 22C24.1 22.6 23.7 23 23.1 23H16.9C16.3 23 15.9 22.6 15.9 22Z" /><path d="M28.7992 5.7998C28.7992 5.6998 28.6992 5.6998 28.7992 5.7998ZM28.7992 5.7998C28.1992 4.7998 26.7992 4.7998 26.1992 5.7998L25.2992 7.4998L23.1992 7.7998C22.0992 7.8998 21.3992 9.2998 22.3992 10.1998L23.8992 11.4998L23.5992 13.2998C23.4992 13.8998 23.7992 14.3998 24.1992 14.6998C24.5992 14.9998 25.1992 14.9998 25.6992 14.7998L27.5992 13.8998L29.4992 14.7998C29.9992 14.9998 30.5992 14.9998 30.9992 14.6998C31.3992 14.3998 31.6992 13.8998 31.5992 13.2998L31.2992 11.4998L32.7992 10.1998C33.7992 9.2998 33.0992 7.8998 31.9992 7.7998L29.8992 7.4998L28.7992 5.7998Z" /><path fill-rule="evenodd" clip-rule="evenodd" d="M27.9576 6.30479L28.7992 5.7998L27.9768 6.33195C27.9701 6.3228 27.9637 6.31374 27.9576 6.30479ZM29.4668 5.0091C28.3952 3.64379 26.2714 3.73586 25.3417 5.28531C25.3326 5.30061 25.3238 5.31615 25.3154 5.33192L24.6537 6.58187L23.0798 6.80671C22.1384 6.90376 21.3936 7.54222 21.0816 8.33264C20.7478 9.1782 20.9059 10.2012 21.7303 10.9431L21.7443 10.9555L22.8207 11.8884L22.6128 13.1354C22.4365 14.1933 22.9808 15.036 23.5992 15.4998C24.3733 16.0804 25.3745 16.0067 26.0706 15.7283C26.0898 15.7206 26.1087 15.7124 26.1273 15.7035L27.5992 15.0063L29.0711 15.7035C29.0898 15.7124 29.1087 15.7206 29.1278 15.7283C29.824 16.0067 30.8251 16.0804 31.5992 15.4998C32.2177 15.036 32.7619 14.1933 32.5856 13.1354L32.3778 11.8884L33.4542 10.9555L33.4682 10.9431C34.2926 10.2012 34.4507 9.1782 34.1169 8.33264C33.8049 7.54222 33.0601 6.90376 32.1187 6.80671L30.4914 6.57425L29.7172 5.37764C29.6944 5.32199 29.6666 5.26705 29.6332 5.21356C29.5918 5.14743 29.5374 5.07649 29.4668 5.0091ZM29.7527 5.7998H28.7992L28.1158 6.48323C28.1319 6.49733 28.1489 6.51126 28.1668 6.52492C28.2527 6.59037 28.4595 6.7248 28.7617 6.7248C28.9282 6.7248 29.1394 6.68163 29.3372 6.54093C29.5386 6.39776 29.6546 6.20433 29.7098 6.02777C29.735 5.94704 29.7479 5.87037 29.7527 5.7998ZM27.9987 6.40334C27.9621 6.358 27.9223 6.30198 27.8857 6.2356C27.6612 5.96891 27.266 5.98932 27.0676 6.29684L26.183 7.96769C26.0333 8.25045 25.7574 8.44451 25.4407 8.48975L23.3407 8.78975C23.3237 8.79217 23.3068 8.79415 23.2898 8.7957C23.1448 8.80887 23.0017 8.91546 22.9419 9.06697C22.9155 9.13392 22.9129 9.19291 22.9237 9.24163C22.9332 9.28428 22.9614 9.35866 23.0626 9.45147L24.5542 10.7441C24.8173 10.9722 24.9429 11.3207 24.8856 11.6642L24.5856 13.4642C24.5714 13.5497 24.5844 13.6187 24.6155 13.6842C24.6501 13.7574 24.7127 13.8349 24.7992 13.8998C24.8057 13.9046 24.8504 13.9333 24.9593 13.9384C25.061 13.9433 25.1839 13.9249 25.304 13.8805L27.1711 12.9961C27.4421 12.8677 27.7564 12.8677 28.0273 12.9961L29.8944 13.8805C30.0146 13.9249 30.1375 13.9433 30.2392 13.9384C30.3481 13.9333 30.3928 13.9046 30.3992 13.8998C30.4858 13.8349 30.5483 13.7574 30.583 13.6842C30.614 13.6187 30.6271 13.5497 30.6128 13.4642L30.3128 11.6642C30.2556 11.3207 30.3811 10.9722 30.6443 10.7441L32.1358 9.45145C32.237 9.35866 32.2652 9.28427 32.2747 9.24163C32.2856 9.19291 32.283 9.13392 32.2566 9.06697C32.1968 8.91546 32.0536 8.80887 31.9087 8.7957C31.8917 8.79415 31.8747 8.79217 31.8578 8.78975L29.7578 8.48975C29.4714 8.44884 29.2168 8.28593 29.0597 8.04306L27.9987 6.40334Z" /><path d="M28.7995 5.7998C28.7995 5.6998 28.6995 5.6998 28.7995 5.7998C28.1995 4.7998 26.7995 4.7998 26.1995 5.7998L25.2995 7.4998L23.1995 7.7998C22.0995 7.8998 21.3995 9.2998 22.3995 10.1998L23.8995 11.4998L23.5995 13.2998C23.4995 13.8998 23.7995 14.3998 24.1995 14.6998C24.5995 14.9998 25.1995 14.9998 25.6995 14.7998L27.5995 13.8998L29.4995 14.7998C29.9995 14.9998 30.5995 14.9998 30.9995 14.6998C31.3995 14.3998 31.6995 13.8998 31.5995 13.2998L31.2995 11.4998L32.7995 10.1998C33.7995 9.2998 33.0995 7.8998 31.9995 7.7998L29.8995 7.4998L28.7995 5.7998Z" fill="#FED607"/></svg>
